X:1
T:Over All
T:Charles Hutchinson Gabriel
T:Over All
T:Public Domain
T:Public Domain
T:Public Domain
C:Charles Hutchinson Gabriel
Z:Public Domain
%%score ( 1 2 ) 3
L:1/8
M:4/4
K:Db
V:1 treble 
V:2 treble 
V:3 bass 
V:1
 [FA][Fd][Fc][FB] [FA][Fd][Fc][FA] | [FB]2 [DF]2 [DF]4 | [FA][Fd][Fc][FB] [FA][Fd][Fc]A | %3
w: 1.~O- ver all the sha- dows ho- ver|beams of light,|O- ver all the sad- ness shine the|
w: 2.~Aft- er all the sigh- ing there is|joy in store,|Aft- er all the dy- ing life for-|
w: 3.~O- ver all the wrong things right tri-|umph- ant reigns,|Aft- er all the striv- ing strength the|
 [GB]2 [CG]2 [EG]4 | [EG][ce][=B=d][ce] [G_B][B_d][=Ac][Bd] | [EG]2 [Gc]2 [Gc]4 | %6
w: so bright, O-|ver all the e- vil Love is ben-|ding still, O-|
w: er- more! Aft-|er all the doubt- ing faith is shin-|ing clear, O-|
w: tor gains, O-|ver all the dis- cord har- mo- ny|we hear, Just|
 [Ac][Bd][GB][Ac] [EG][EA][GB][Gc] | [GB]2 [FA]2 [FA]4 ||"^Refrain" [Fd]2 [Fd]2 [Fd]3 [Fc] | %9
w: ver all the cha- os God’s un- chang-|ing will. *||
w: ver all God whis- pers: “Peace, be of|good cheer!” O-|ver all, to watch|
w: with- in the sha- dow God is stand-|ing near. *||
 [Fd][Fe][Dd][AB] [Gd][Gc] [Gc]2 | [Ge]2 [Ge]2 [Ge]3 [Gd] | [Gc][GB][EG][GB] [FA]4 | %12
w: |||
w: and guard, and guide, and keep, To|be- hold and mark|the spar- row’s fall; O-|
w: |||
 [Fd]2 [Fd]2 [Fd]3 [Fc] | [Fd][Fe][Dd][AB] [Gd][Gc] [Gc]2 | [ce][df][ce][Bd] [Gc][GB][GA][Ge] | %15
w: |||
w: ver all, the eye|of One who ne- ver sleeps— God’s|un- chang- ing love is o- ver all.|
w: |||
 [Fd]6 z2 |] x8 |] %17
w: ||
w: ||
w: ||
V:2
 x8 | x8 | x7 A | x8 | x8 | x8 | x8 | x8 || x8 | x8 | x8 | x8 | x8 | x8 | x8 | x8 |] x8 |] %17
w: ||stars|||||||||||||||
w: ||ev-|||||||||||||||
w: ||vic-|||||||||||||||
V:3
 [D,D][D,A,][D,A,][D,D] [D,D][D,A,][D,A,][D,D] | [D,D]2 [D,A,]2 [D,A,]4 | %2
 [D,D][D,A,][D,A,][D,D] [D,D][D,A,] x2 | [D,A,][F,D] x6 | [E,C]2 [E,A,]2 [A,C]4 | %5
 [A,,A,][A,,A,][A,,A,][A,,G,] [A,,A,][A,,A,][A,,A,][A,,A,] | [A,,C]2 [A,,E]2 [A,,E]4 | %7
 [A,,E][A,,E][A,,E][A,,E] [A,,C][A,,C][A,,C][A,,C] || [D,D]2 [D,D]2 [D,D]4 | %9
 [D,A,]2 [D,A,]2 [D,A,]3 [D,A,] | [D,A,][D,A,][F,A,][_F,D] [E,A,][E,A,] [E,A,]2 | %11
 [A,,C]2 [A,,C]2 [A,,C]3 [A,,E] | [A,,E][A,,C][A,,C][A,,C] [D,D]4 | %13
 [D,A,]2 [D,A,]2 [D,A,]3 [D,A,] | [D,A,][D,A,][F,A,][_F,D] [E,A,][E,A,] [E,A,]2 | %15
 [A,,A,][A,,A,][A,,A,][A,,A,] [A,,E][A,,D][A,,C][A,,A,] |] [D,A,]6 z2 |] %17

